outputs/icons/social/person_outline_round.svg

<svg xmlns="http://www.w3.org/2000/svg" width="1200" height="1200" fill="none"><g clip-path="url(#a)"><path fill="#000" d="M600 295c58 0 105 47 105 105s-47 105-105 105-105-47-105-105 47-105 105-105m0 450c148.5 0 305 73 305 105v55H295v-55c0-32 156.5-105 305-105m0-545c-110.5 0-200 89.5-200 200s89.5 200 200 200 200-89.5 200-200-89.5-200-200-200m0 450c-133.5 0-400 67-400 200v100c0 27.5 22.5 50 50 50h700c27.5 0 50-22.5 50-50V850c0-133-266.5-200-400-200"/></g><defs><clipPath id="a"><path fill="#fff" d="M0 0h1200v1200H0z"/></clipPath></defs></svg>

<svg width="1200" height="1200" viewBox="0 0 1200 1200" fill="none" xmlns="http://www.w3.org/2000/svg"><g clip-path="url(#clip0_231_5354)"><path d="M600 295C658 295 705 342 705 400C705 458 658 505 600 505C542 505 495 458 495 400C495 342 542 295 600 295ZM600 745C748.5 745 905 818 905 850V905H295V850C295 818 451.5 745 600 745ZM600 200C489.5 200 400 289.5 400 400C400 510.5 489.5 600 600 600C710.5 600 800 510.5 800 400C800 289.5 710.5 200 600 200ZM600 650C466.5 650 200 717 200 850V950C200 977.5 222.5 1000 250 1000H950C977.5 1000 1000 977.5 1000 950V850C1000 717 733.5 650 600 650Z" fill="#1D1E23"/></g><defs><clipPath id="clip0_231_5354"><path width="24" fill="white" d="M0 0H1200V1200H0V0z"/></clipPath></defs></svg>
